;FLAVOR:Marlin
;TIME:3070
;Filament used: 1.57969m, 0m
;Layer height: 0.15
;MINX:84.067
;MINY:96.25
;MINZ:0.2
;MAXX:136.067
;MAXY:122.98
;MAXZ:28.7
;Generated with Cura_SteamEngine 5.0.0
T0
M140 S50
M105
M190 S50
M104 S205
M105
M109 S205
M82 ;absolute extrusion mode
G28 ;Home
;G29 ; auto level
G1 Z15.0 F6000 ;Move the platform down 15mm
;Prime the extruder
G92 E0
G1 F200 E3
G92 E0
G92 E0
G92 E0
G1 F2100 E-6
;LAYER_COUNT:191
;LAYER:0
M107
G1 F600 Z1.2
G0 F2400 X85.999 Y97.858 Z1.2
G1 F600 Z1.2
G0 F2400 X84.068 Y102.834
;TYPE:SKIRT
G1 F600 Z0.2
G1 F2100 E0
G1 F1200 X84.078 Y102.169 E0.02212
G1 X84.128 Y101.478 E0.04516
G1 X84.258 Y100.798 E0.06819
G1 X84.465 Y100.137 E0.09123
G1 X84.747 Y99.504 E0.11428
G1 X85.1 Y98.909 E0.13729
G1 X85.519 Y98.357 E0.16034
G1 X85.999 Y97.858 E0.18337
G1 X86.533 Y97.417 E0.2064
G1 X87.115 Y97.041 E0.22945
G1 X87.736 Y96.735 E0.25247
G1 X88.388 Y96.502 E0.2755
G1 X89.062 Y96.345 E0.29852
G1 X89.908 Y96.261 E0.32679
G1 X91.395 Y96.25 E0.37625
G1 X92.336 Y96.263 E0.40755
G1 X94.901 Y96.265 E0.49287
G1 X96.099 Y96.25 E0.53271
G1 X123.973 Y96.251 E1.45981
G1 X124.979 Y96.265 E1.49327
G1 X127.809 Y96.264 E1.5874
G1 X128.828 Y96.25 E1.62129
G1 X130.105 Y96.26 E1.66377
G1 X130.796 Y96.306 E1.6868
G1 X131.477 Y96.43 E1.70982
G1 X132.14 Y96.633 E1.73288
G1 X132.774 Y96.91 E1.7559
G1 X133.373 Y97.259 E1.77895
G1 X133.927 Y97.674 E1.80198
G1 X134.429 Y98.15 E1.82499
G1 X134.874 Y98.681 E1.84803
G1 X135.254 Y99.26 E1.87106
G1 X135.565 Y99.879 E1.8941
G1 X135.803 Y100.529 E1.91713
G1 X135.964 Y101.203 E1.94018
G1 X136.056 Y102.091 E1.96987
G1 X136.067 Y102.58 E1.98614
G1 X136.066 Y114.218 E2.37322
G1 X136.056 Y114.946 E2.39743
G1 X136.007 Y115.637 E2.42047
G1 X135.878 Y116.318 E2.44353
G1 X135.672 Y116.979 E2.46655
G1 X135.391 Y117.612 E2.48959
G1 X135.039 Y118.208 E2.51261
G1 X134.62 Y118.76 E2.53566
G1 X134.141 Y119.26 E2.55869
G1 X133.607 Y119.701 E2.58173
G1 X133.026 Y120.078 E2.60476
G1 X132.406 Y120.385 E2.62777
G1 X131.754 Y120.619 E2.65081
G1 X131.079 Y120.776 E2.67386
G1 X130.237 Y120.861 E2.70201
G1 X129.348 Y120.888 E2.73159
G1 X126.67 Y121.005 E2.82075
G1 X123.969 Y121.2 E2.91082
G1 X121.336 Y121.463 E2.99883
G1 X118.739 Y121.799 E3.08592
G1 X116.083 Y122.219 E3.17536
G1 X113.43 Y122.715 E3.26513
G1 X112.731 Y122.855 E3.28884
G1 X111.725 Y122.969 E3.32251
G1 X111.237 Y122.98 E3.33875
G1 X109.188 Y122.979 E3.4069
G1 X108.489 Y122.969 E3.43015
G1 X107.487 Y122.87 E3.46364
G1 X106.837 Y122.75 E3.48562
G1 X105.258 Y122.432 E3.53919
G1 X102.633 Y121.982 E3.62778
G1 X99.985 Y121.604 E3.71674
G1 X97.357 Y121.303 E3.80472
G1 X94.718 Y121.078 E3.89281
G1 X92.083 Y120.928 E3.98059
G1 X90.407 Y120.879 E4.03636
G1 X89.814 Y120.853 E4.0561
G1 X89.125 Y120.783 E4.07914
G1 X88.449 Y120.634 E4.10216
G1 X87.794 Y120.408 E4.12521
G1 X87.17 Y120.108 E4.14824
G1 X86.585 Y119.738 E4.17126
G1 X86.046 Y119.303 E4.1943
G1 X85.561 Y118.809 E4.21732
G1 X85.135 Y118.262 E4.24038
G1 X84.776 Y117.67 E4.26341
G1 X84.488 Y117.041 E4.28642
G1 X84.273 Y116.382 E4.30947
G1 X84.137 Y115.703 E4.33251
G1 X84.08 Y115.035 E4.3548
G1 X84.067 Y114.519 E4.37197
G1 X84.068 Y102.834 E4.76062
G0 F2400 X84.468 Y102.84
G1 F1200 X84.478 Y102.175 E4.78274
G1 X84.528 Y101.508 E4.80498
G1 X84.657 Y100.851 E4.82725
G1 X84.863 Y100.215 E4.84949
G1 X85.144 Y99.608 E4.87174
G1 X85.496 Y99.038 E4.89402
G1 X85.913 Y98.515 E4.91626
G1 X86.389 Y98.045 E4.93851
G1 X86.918 Y97.635 E4.96077
G1 X87.492 Y97.292 E4.98301
G1 X88.102 Y97.019 E5.00524
G1 X88.741 Y96.821 E5.02749
G1 X89.4 Y96.7 E5.04978
G1 X89.92 Y96.661 E5.06712
G1 X91.395 Y96.65 E5.11618
G1 X92.33 Y96.663 E5.14728
G1 X94.905 Y96.665 E5.23293
G1 X96.104 Y96.65 E5.27281
G1 X123.968 Y96.651 E6.19957
G1 X124.974 Y96.665 E6.23303
G1 X127.815 Y96.664 E6.32752
G1 X128.825 Y96.65 E6.36112
G1 X130.102 Y96.66 E6.4036
G1 X130.769 Y96.705 E6.42583
G1 X131.427 Y96.83 E6.44811
G1 X132.065 Y97.032 E6.47036
G1 X132.674 Y97.308 E6.4926
G1 X133.246 Y97.656 E6.51487
G1 X133.772 Y98.069 E6.53712
G1 X134.245 Y98.541 E6.55934
G1 X134.659 Y99.067 E6.5816
G1 X135.007 Y99.639 E6.60387
G1 X135.284 Y100.248 E6.62613
G1 X135.487 Y100.885 E6.64836
G1 X135.612 Y101.543 E6.67064
G1 X135.656 Y102.103 E6.68932
G1 X135.667 Y102.58 E6.70519
G1 X135.666 Y114.213 E7.09211
G1 X135.656 Y114.941 E7.11632
G1 X135.607 Y115.608 E7.13857
G1 X135.479 Y116.265 E7.16083
G1 X135.273 Y116.901 E7.18306
G1 X134.993 Y117.509 E7.20533
G1 X134.642 Y118.079 E7.22759
G1 X134.226 Y118.603 E7.24985
G1 X133.751 Y119.073 E7.27207
G1 X133.222 Y119.484 E7.29435
G1 X132.649 Y119.828 E7.31658
G1 X132.038 Y120.102 E7.33885
G1 X131.4 Y120.301 E7.36108
G1 X130.742 Y120.422 E7.38333
G1 X130.225 Y120.461 E7.40058
G1 X129.368 Y120.487 E7.42909
G1 X126.622 Y120.608 E7.52051
G1 X123.937 Y120.801 E7.61005
G1 X121.316 Y121.063 E7.69766
G1 X118.621 Y121.412 E7.78804
G1 X116.018 Y121.823 E7.87569
G1 X113.409 Y122.312 E7.96398
G1 X112.653 Y122.463 E7.98962
G1 X111.714 Y122.569 E8.02105
G1 X111.237 Y122.58 E8.03692
G1 X109.194 Y122.579 E8.10487
G1 X108.495 Y122.569 E8.12812
G1 X107.559 Y122.477 E8.1594
G1 X106.916 Y122.358 E8.18115
G1 X105.306 Y122.034 E8.23577
G1 X102.72 Y121.59 E8.32304
G1 X100.05 Y121.209 E8.41275
G1 X97.4 Y120.906 E8.50146
G1 X94.739 Y120.679 E8.59029
G1 X92.082 Y120.528 E8.6788
G1 X90.425 Y120.48 E8.73394
G1 X89.832 Y120.454 E8.75368
G1 X89.166 Y120.384 E8.77595
G1 X88.514 Y120.236 E8.79819
G1 X87.884 Y120.012 E8.82043
G1 X87.285 Y119.713 E8.8427
G1 X86.726 Y119.346 E8.86494
G1 X86.215 Y118.914 E8.88719
G1 X85.759 Y118.424 E8.90945
G1 X85.364 Y117.884 E8.93171
G1 X85.037 Y117.3 E8.95397
G1 X84.782 Y116.682 E8.9762
G1 X84.602 Y116.038 E8.99845
G1 X84.501 Y115.376 E9.02072
G1 X84.469 Y114.684 E9.04376
G1 X84.468 Y102.84 E9.43769
G0 F2400 X84.868 Y102.846
G1 F1200 X84.878 Y102.181 E9.45981
G1 X84.927 Y101.538 E9.48126
G1 X85.056 Y100.906 E9.50271
G1 X85.262 Y100.295 E9.52416
G1 X85.542 Y99.715 E9.54558
G1 X85.892 Y99.173 E9.56704
G1 X86.306 Y98.679 E9.58848
G1 X86.778 Y98.24 E9.60992
G1 X87.3 Y97.862 E9.63135
G1 X87.866 Y97.553 E9.6528
G1 X88.465 Y97.315 E9.67424
G1 X89.089 Y97.154 E9.69567
G1 X89.931 Y97.061 E9.72385
G1 X91.395 Y97.05 E9.77254
G1 X92.327 Y97.063 E9.80354
G1 X94.91 Y97.065 E9.88946
G1 X96.109 Y97.05 E9.92934
G1 X123.962 Y97.051 E10.85573
G1 X124.968 Y97.065 E10.88919
G1 X127.821 Y97.064 E10.98409
G1 X128.822 Y97.05 E11.01738
G1 X130.099 Y97.06 E11.05986
G1 X130.742 Y97.105 E11.0813
G1 X131.374 Y97.229 E11.10272
G1 X131.987 Y97.431 E11.12418
G1 X132.569 Y97.707 E11.14561
G1 X133.114 Y98.052 E11.16706
G1 X133.611 Y98.463 E11.18851
G1 X134.053 Y98.932 E11.20995
G1 X134.434 Y99.452 E11.23139
G1 X134.748 Y100.015 E11.25283
G1 X134.99 Y100.612 E11.27425
G1 X135.156 Y101.235 E11.2957
G1 X135.256 Y102.114 E11.32512
G1 X135.267 Y102.58 E11.34063
G1 X135.267 Y114.207 E11.72734
G1 X135.257 Y114.935 E11.75156
G1 X135.208 Y115.578 E11.773
G1 X135.08 Y116.21 E11.79445
G1 X134.875 Y116.821 E11.81589
G1 X134.595 Y117.402 E11.83734
G1 X134.246 Y117.944 E11.85878
G1 X133.833 Y118.439 E11.88022
G1 X133.362 Y118.879 E11.90166
G1 X132.84 Y119.257 E11.92309
G1 X132.275 Y119.567 E11.94453
G1 X131.676 Y119.806 E11.96598
G1 X131.052 Y119.968 E11.98742
G1 X130.213 Y120.062 E12.0155
G1 X129.289 Y120.09 E12.04625
G1 X126.612 Y120.207 E12.13537
G1 X123.904 Y120.402 E12.22567
G1 X121.257 Y120.667 E12.31415
G1 X118.584 Y121.013 E12.4038
G1 X115.954 Y121.428 E12.49235
G1 X113.3 Y121.925 E12.58216
G1 X112.575 Y122.07 E12.60675
G1 X111.703 Y122.169 E12.63594
G1 X111.237 Y122.18 E12.65144
G1 X109.2 Y122.179 E12.7192
G1 X108.501 Y122.169 E12.74245
G1 X107.632 Y122.084 E12.77149
G1 X106.995 Y121.966 E12.79304
G1 X105.381 Y121.641 E12.84779
G1 X102.773 Y121.194 E12.9358
G1 X100.081 Y120.809 E13.02625
G1 X97.446 Y120.508 E13.11446
G1 X94.795 Y120.282 E13.20295
G1 X92.082 Y120.128 E13.29333
G1 X90.442 Y120.08 E13.3479
G1 X89.849 Y120.054 E13.36764
G1 X89.208 Y119.986 E13.38908
G1 X88.58 Y119.839 E13.41054
G1 X87.976 Y119.616 E13.43195
G1 X87.403 Y119.319 E13.45342
G1 X86.872 Y118.954 E13.47485
G1 X86.39 Y118.526 E13.49629
G1 X85.965 Y118.041 E13.51773
G1 X85.602 Y117.508 E13.53918
G1 X85.309 Y116.934 E13.56062
G1 X85.089 Y116.328 E13.58206
G1 X84.945 Y115.7 E13.60349
G1 X84.879 Y115.012 E13.62648
G1 X84.867 Y114.519 E13.64288
G1 X84.868 Y102.846 E14.03113
G0 F2400 X85.268 Y102.852
G1 F1200 X85.278 Y102.187 E14.05325
G1 X85.327 Y101.569 E14.07387
G1 X85.455 Y100.964 E14.09443
G1 X85.66 Y100.379 E14.11505
G1 X85.939 Y99.826 E14.13565
G1 X86.287 Y99.314 E14.15624
G1 X86.698 Y98.85 E14.17686
G1 X87.165 Y98.443 E14.19746
G1 X87.68 Y98.1 E14.21804
G1 X88.236 Y97.826 E14.23866
G1 X88.822 Y97.626 E14.25925
G1 X89.429 Y97.503 E14.27985
G1 X89.942 Y97.461 E14.29697
G1 X90.397 Y97.45 E14.31211
G1 X91.462 Y97.45 E14.34753
G1 X92.39 Y97.463 E14.3784
G1 X94.915 Y97.465 E14.46238
G1 X96.114 Y97.45 E14.50226
G1 X123.957 Y97.45 E15.42833
G1 X125.033 Y97.465 E15.46412
G1 X127.826 Y97.464 E15.55701
G1 X128.819 Y97.45 E15.59004
G1 X130.096 Y97.46 E15.63252
G1 X130.713 Y97.505 E15.65309
G1 X131.32 Y97.629 E15.6737
G1 X131.906 Y97.83 E15.6943
G1 X132.461 Y98.105 E15.71491
G1 X132.976 Y98.449 E15.7355
G1 X133.442 Y98.856 E15.75608
G1 X133.853 Y99.32 E15.7767
G1 X134.199 Y99.833 E15.79728
G1 X134.477 Y100.387 E15.8179
G1 X134.682 Y100.972 E15.83851
G1 X134.809 Y101.578 E15.85911
G1 X134.856 Y102.125 E15.87737
G1 X134.867 Y102.58 E15.89251
G1 X134.867 Y114.202 E16.27905
G1 X134.857 Y114.93 E16.30327
G1 X134.808 Y115.547 E16.32386
G1 X134.681 Y116.153 E16.34445
G1 X134.476 Y116.738 E16.36507
G1 X134.198 Y117.291 E16.38565
G1 X133.851 Y117.804 E16.40625
G1 X133.441 Y118.269 E16.42687
G1 X132.974 Y118.676 E16.44748
G1 X132.459 Y119.02 E16.46807
G1 X131.904 Y119.294 E16.48866
G1 X131.318 Y119.495 E16.50927
G1 X130.711 Y119.619 E16.52987
G1 X130.201 Y119.662 E16.54689
G1 X129.266 Y119.69 E16.57801
G1 X126.604 Y119.807 E16.66663
G1 X123.869 Y120.004 E16.75783
G1 X121.203 Y120.271 E16.84695
G1 X118.542 Y120.615 E16.93619
G1 X115.883 Y121.035 E17.02572
G1 X113.226 Y121.532 E17.11563
G1 X112.496 Y121.678 E17.14039
G1 X111.691 Y121.769 E17.16733
G1 X111.237 Y121.78 E17.18244
G1 X109.205 Y121.78 E17.25002
G1 X108.506 Y121.77 E17.27328
G1 X107.704 Y121.69 E17.30008
G1 X107.074 Y121.573 E17.32139
G1 X105.49 Y121.254 E17.37514
G1 X102.831 Y120.798 E17.46487
G1 X100.146 Y120.414 E17.55508
G1 X97.489 Y120.111 E17.64402
G1 X94.78 Y119.88 E17.73445
G1 X92.116 Y119.728 E17.8232
G1 X90.46 Y119.68 E17.8783
G1 X89.867 Y119.654 E17.89805
G1 X89.251 Y119.587 E17.91865
G1 X88.649 Y119.442 E17.93925
G1 X88.071 Y119.22 E17.95984
G1 X87.526 Y118.925 E17.98045
G1 X87.024 Y118.563 E18.00104
G1 X86.572 Y118.139 E18.02165
G1 X86.179 Y117.66 E18.04226
G1 X85.851 Y117.135 E18.06285
G1 X85.593 Y116.572 E18.08345
G1 X85.41 Y115.98 E18.10406
G1 X85.304 Y115.37 E18.12465
G1 X85.269 Y114.66 E18.14829
G1 X85.268 Y102.852 E18.54103
G0 F2400 X85.667 Y102.858
G1 F1200 X85.677 Y102.193 E18.56315
G1 X85.726 Y101.602 E18.58287
G1 X85.854 Y101.023 E18.6026
G1 X86.059 Y100.466 E18.62234
G1 X86.336 Y99.942 E18.64205
G1 X86.682 Y99.46 E18.66178
G1 X87.089 Y99.029 E18.6815
G1 X87.55 Y98.657 E18.7012
G1 X88.058 Y98.35 E18.72095
G1 X88.601 Y98.114 E18.74064
G1 X89.172 Y97.953 E18.76037
G1 X89.953 Y97.861 E18.78653
G1 X90.397 Y97.85 E18.8013
G1 X91.457 Y97.85 E18.83655
G1 X92.385 Y97.863 E18.86742
G1 X94.919 Y97.865 E18.9517
G1 X96.119 Y97.85 E18.99162
G1 X123.951 Y97.85 E19.91731
G1 X125.027 Y97.865 E19.95311
G1 X127.764 Y97.864 E20.04414
G1 X128.815 Y97.85 E20.0791
G1 X130.092 Y97.86 E20.12157
G1 X130.684 Y97.905 E20.14132
G1 X131.264 Y98.028 E20.16104
G1 X131.822 Y98.229 E20.18077
G1 X132.348 Y98.503 E20.20049
G1 X132.832 Y98.845 E20.2202
G1 X133.266 Y99.249 E20.23992
G1 X133.642 Y99.707 E20.25963
G1 X133.953 Y100.212 E20.27936
G1 X134.192 Y100.755 E20.29909
G1 X134.357 Y101.324 E20.3188
G1 X134.456 Y102.136 E20.346
G1 X134.467 Y102.58 E20.36078
G1 X134.467 Y114.196 E20.74712
G1 X134.457 Y114.924 E20.77134
G1 X134.409 Y115.515 E20.79106
G1 X134.281 Y116.095 E20.81082
G1 X134.078 Y116.651 E20.8305
G1 X133.801 Y117.176 E20.85025
G1 X133.456 Y117.658 E20.86996
G1 X133.049 Y118.09 E20.8897
G1 X132.588 Y118.463 E20.90943
G1 X132.082 Y118.771 E20.92913
G1 X131.538 Y119.007 E20.94885
G1 X130.967 Y119.169 E20.96859
G1 X130.189 Y119.262 E20.99465
G1 X129.303 Y119.289 E21.02413
G1 X126.556 Y119.409 E21.11559
G1 X123.836 Y119.605 E21.20629
G1 X121.182 Y119.871 E21.295
G1 X118.46 Y120.223 E21.38629
G1 X115.825 Y120.639 E21.47502
G1 X113.153 Y121.139 E21.56543
G1 X112.418 Y121.286 E21.59036
G1 X111.68 Y121.369 E21.61506
G1 X111.237 Y121.38 E21.6298
G1 X109.211 Y121.38 E21.69719
G1 X108.512 Y121.37 E21.72044
G1 X107.777 Y121.297 E21.745
G1 X107.153 Y121.181 E21.76611
G1 X105.571 Y120.862 E21.81979
G1 X102.878 Y120.4 E21.91067
G1 X100.216 Y120.02 E22.0001
G1 X97.498 Y119.71 E22.09109
G1 X94.837 Y119.483 E22.17992
G1 X92.116 Y119.328 E22.27057
G1 X90.477 Y119.281 E22.3251
G1 X89.884 Y119.255 E22.34484
G1 X89.295 Y119.189 E22.36456
G1 X88.72 Y119.044 E22.38428
G1 X88.169 Y118.824 E22.40401
G1 X87.654 Y118.532 E22.4237
G1 X87.182 Y118.172 E22.44345
G1 X86.763 Y117.753 E22.46316
G1 X86.404 Y117.281 E22.48288
G1 X86.111 Y116.765 E22.50262
G1 X85.891 Y116.215 E22.52232
G1 X85.747 Y115.639 E22.54207
G1 X85.679 Y114.988 E22.56384
G1 X85.667 Y114.519 E22.57944
G1 X85.667 Y102.858 E22.96729
G0 F2400 X86.067 Y102.864
G1 F1200 X86.077 Y102.199 E22.98941
G1 X86.126 Y101.636 E23.0082
G1 X86.253 Y101.085 E23.02701
G1 X86.457 Y100.557 E23.04584
G1 X86.733 Y100.064 E23.06463
G1 X87.076 Y99.615 E23.08342
G1 X87.479 Y99.218 E23.10224
G1 X87.933 Y98.882 E23.12102
G1 X88.431 Y98.613 E23.13985
G1 X88.961 Y98.418 E23.15863
G1 X89.514 Y98.299 E23.17744
G1 X90.285 Y98.252 E23.20314
G1 X91.451 Y98.25 E23.24192
G1 X92.379 Y98.263 E23.27279
G1 X94.924 Y98.265 E23.35743
G1 X96.124 Y98.25 E23.39735
G1 X123.946 Y98.25 E24.32271
G1 X125.023 Y98.265 E24.35854
G1 X127.77 Y98.264 E24.4499
G1 X128.812 Y98.25 E24.48456
G1 X130.089 Y98.26 E24.52704
G1 X130.653 Y98.304 E24.54585
G1 X131.205 Y98.428 E24.56467
G1 X131.733 Y98.628 E24.58345
G1 X132.229 Y98.9 E24.60226
G1 X132.681 Y99.24 E24.62108
G1 X133.08 Y99.64 E24.63987
G1 X133.42 Y100.092 E24.65868
G1 X133.692 Y100.588 E24.67749
G1 X133.891 Y101.117 E24.69629
G1 X134.014 Y101.668 E24.71507
G1 X134.065 Y102.468 E24.74173
G1 X134.067 Y114.191 E25.13164
G1 X134.057 Y114.919 E25.15586
G1 X134.009 Y115.482 E25.17465
G1 X133.882 Y116.033 E25.19346
G1 X133.679 Y116.561 E25.21227
G1 X133.404 Y117.055 E25.23107
G1 X133.062 Y117.505 E25.24987
G1 X132.659 Y117.902 E25.26869
G1 X132.205 Y118.238 E25.28747
G1 X131.708 Y118.507 E25.30627
G1 X131.178 Y118.704 E25.32508
G1 X130.625 Y118.823 E25.34389
G1 X129.272 Y118.889 E25.38895
G1 X126.545 Y119.009 E25.47973
G1 X123.807 Y119.206 E25.57104
G1 X121.12 Y119.475 E25.66085
G1 X118.423 Y119.824 E25.7513
G1 X115.754 Y120.245 E25.84117
G1 X113.079 Y120.746 E25.93169
G1 X112.339 Y120.894 E25.95679
G1 X111.669 Y120.969 E25.97921
G1 X111.237 Y120.98 E25.99359
G1 X109.217 Y120.98 E26.06077
G1 X108.518 Y120.97 E26.08402
G1 X107.849 Y120.904 E26.10638
G1 X107.232 Y120.789 E26.12726
G1 X105.612 Y120.463 E26.18222
G1 X102.966 Y120.009 E26.27151
G1 X100.247 Y119.621 E26.36286
G1 X97.579 Y119.316 E26.45218
G1 X94.859 Y119.084 E26.54297
G1 X92.113 Y118.927 E26.63445
G1 X90.495 Y118.881 E26.68829
G1 X89.902 Y118.855 E26.70803
G1 X89.34 Y118.791 E26.72685
G1 X88.793 Y118.647 E26.74566
G1 X88.272 Y118.429 E26.76444
G1 X87.787 Y118.138 E26.78326
G1 X87.347 Y117.783 E26.80206
G1 X86.962 Y117.369 E26.82086
G1 X86.64 Y116.905 E26.83965
G1 X86.386 Y116.4 E26.85845
G1 X86.205 Y115.864 E26.87727
G1 X86.102 Y115.308 E26.89607
G1 X86.069 Y114.637 E26.91842
G1 X86.067 Y102.864 E27.30999
G0 F2400 X86.467 Y102.87
G1 F1200 X86.477 Y102.205 E27.33211
G1 X86.525 Y101.671 E27.34994
G1 X86.652 Y101.15 E27.36778
G1 X86.855 Y100.653 E27.38563
G1 X87.129 Y100.192 E27.40347
G1 X87.469 Y99.777 E27.42131
G1 X87.867 Y99.418 E27.43914
G1 X88.313 Y99.121 E27.45696
G1 X88.799 Y98.893 E27.47482
G1 X89.313 Y98.741 E27.49265
