;FLAVOR:Marlin
;TIME:2761
;Filament used: 1.36963m, 0m
;Layer height: 0.15
;MINX:84.067
;MINY:97.25
;MINZ:0.2
;MAXX:136.067
;MAXY:121.98
;MAXZ:28.7
;Generated with Cura_SteamEngine 5.0.0
T0
M140 S50
M105
M190 S50
M104 S205
M105
M109 S205
M82 ;absolute extrusion mode
G28 ;Home
;G29 ; auto level
G1 Z15.0 F6000 ;Move the platform down 15mm
;Prime the extruder
G92 E0
G1 F200 E3
G92 E0
G92 E0
G92 E0
G1 F2100 E-6
;LAYER_COUNT:191
;LAYER:0
M107
G1 F600 Z1.2
G0 F2400 X85.998 Y98.859 Z1.2
G1 F600 Z1.2
G0 F2400 X84.068 Y103.842
;TYPE:SKIRT
G1 F600 Z0.2
G1 F2100 E0
G1 F1200 X84.078 Y103.17 E0.02235
G1 X84.128 Y102.479 E0.0454
G1 X84.257 Y101.799 E0.06842
G1 X84.464 Y101.138 E0.09145
G1 X84.746 Y100.505 E0.1145
G1 X85.099 Y99.909 E0.13754
G1 X85.518 Y99.358 E0.16056
G1 X85.998 Y98.859 E0.18359
G1 X86.532 Y98.418 E0.20663
G1 X87.114 Y98.042 E0.22967
G1 X87.735 Y97.735 E0.25271
G1 X88.387 Y97.502 E0.27574
G1 X89.061 Y97.346 E0.29875
G1 X89.947 Y97.26 E0.32836
G1 X90.5 Y97.25 E0.34676
G1 X91.508 Y97.252 E0.38028
G1 X92.486 Y97.267 E0.41281
G1 X95.242 Y97.269 E0.50448
G1 X96.38 Y97.25 E0.54234
G1 X123.387 Y97.25 E1.44059
G1 X125.039 Y97.273 E1.49554
G1 X129.483 Y97.252 E1.64335
G1 X130.139 Y97.261 E1.66517
G1 X130.83 Y97.31 E1.68821
G1 X131.511 Y97.439 E1.71127
G1 X132.172 Y97.645 E1.73429
G1 X132.805 Y97.926 E1.75733
G1 X133.401 Y98.278 E1.78035
G1 X133.953 Y98.697 E1.8034
G1 X134.453 Y99.176 E1.82643
G1 X134.894 Y99.71 E1.84947
G1 X135.271 Y100.291 E1.8725
G1 X135.578 Y100.911 E1.89551
G1 X135.812 Y101.563 E1.91855
G1 X135.969 Y102.238 E1.9416
G1 X136.055 Y103.1 E1.97041
G1 X136.067 Y103.635 E1.98821
G1 X136.066 Y113.22 E2.30701
G1 X136.056 Y113.947 E2.33119
G1 X136.007 Y114.637 E2.3542
G1 X135.878 Y115.318 E2.37725
G1 X135.672 Y115.979 E2.40028
G1 X135.391 Y116.612 E2.42332
G1 X135.039 Y117.208 E2.44634
G1 X134.62 Y117.76 E2.46939
G1 X134.141 Y118.26 E2.49242
G1 X133.607 Y118.701 E2.51545
G1 X133.026 Y119.078 E2.53849
G1 X132.406 Y119.385 E2.5615
G1 X131.754 Y119.619 E2.58454
G1 X131.079 Y119.776 E2.60759
G1 X130.236 Y119.861 E2.63577
G1 X129.342 Y119.888 E2.66552
G1 X126.67 Y120.004 E2.75447
G1 X123.976 Y120.198 E2.84431
G1 X121.329 Y120.464 E2.93279
G1 X118.732 Y120.8 E3.01989
G1 X116.052 Y121.223 E3.11013
G1 X113.502 Y121.701 E3.19642
G1 X112.731 Y121.855 E3.22257
G1 X111.725 Y121.969 E3.25624
G1 X111.237 Y121.98 E3.27248
G1 X109.188 Y121.979 E3.34063
G1 X108.489 Y121.969 E3.36388
G1 X107.482 Y121.87 E3.39753
G1 X106.799 Y121.743 E3.42064
G1 X105.212 Y121.424 E3.47448
G1 X102.635 Y120.981 E3.56145
G1 X99.978 Y120.603 E3.65071
G1 X97.355 Y120.304 E3.73852
G1 X94.706 Y120.078 E3.82694
G1 X92.07 Y119.928 E3.91476
G1 X90.423 Y119.881 E3.96956
G1 X89.826 Y119.856 E3.98943
G1 X89.137 Y119.787 E4.01246
G1 X88.46 Y119.639 E4.03551
G1 X87.805 Y119.414 E4.05855
G1 X87.18 Y119.116 E4.08158
G1 X86.594 Y118.747 E4.10461
G1 X86.055 Y118.313 E4.12763
G1 X85.568 Y117.82 E4.15067
G1 X85.142 Y117.274 E4.17371
G1 X84.782 Y116.682 E4.19675
G1 X84.492 Y116.054 E4.21976
G1 X84.277 Y115.395 E4.24282
G1 X84.138 Y114.717 E4.26583
G1 X84.08 Y114.036 E4.28857
G1 X84.067 Y113.518 E4.3058
G1 X84.068 Y103.842 E4.62763
G0 F2400 X84.468 Y103.848
G1 F1200 X84.478 Y103.176 E4.64998
G1 X84.528 Y102.509 E4.67223
G1 X84.657 Y101.852 E4.6945
G1 X84.863 Y101.216 E4.71673
G1 X85.144 Y100.608 E4.73901
G1 X85.495 Y100.039 E4.76124
G1 X85.912 Y99.516 E4.78349
G1 X86.388 Y99.046 E4.80574
G1 X86.917 Y98.636 E4.828
G1 X87.491 Y98.292 E4.85026
G1 X88.102 Y98.019 E4.87252
G1 X88.741 Y97.821 E4.89477
G1 X89.399 Y97.7 E4.91702
G1 X89.956 Y97.66 E4.93559
G1 X90.499 Y97.65 E4.95366
G1 X91.502 Y97.652 E4.98702
G1 X92.48 Y97.667 E5.01955
G1 X95.248 Y97.669 E5.11161
G1 X96.38 Y97.65 E5.14927
G1 X123.387 Y97.65 E6.04752
G1 X125.035 Y97.673 E6.10234
G1 X129.478 Y97.652 E6.25012
G1 X130.134 Y97.661 E6.27194
G1 X130.801 Y97.71 E6.29418
G1 X131.458 Y97.838 E6.31645
G1 X132.094 Y98.044 E6.33868
G1 X132.702 Y98.324 E6.36095
G1 X133.272 Y98.675 E6.38321
G1 X133.795 Y99.091 E6.40544
G1 X134.266 Y99.566 E6.42769
G1 X134.676 Y100.095 E6.44995
G1 X135.021 Y100.668 E6.47219
G1 X135.295 Y101.279 E6.49446
G1 X135.494 Y101.917 E6.51669
G1 X135.615 Y102.575 E6.53894
G1 X135.655 Y103.111 E6.55682
G1 X135.667 Y103.635 E6.57425
G1 X135.666 Y113.214 E6.89285
G1 X135.656 Y113.941 E6.91704
G1 X135.607 Y114.608 E6.93928
G1 X135.479 Y115.265 E6.96154
G1 X135.273 Y115.901 E6.98378
G1 X134.993 Y116.509 E7.00604
G1 X134.642 Y117.079 E7.02831
G1 X134.226 Y117.603 E7.05056
G1 X133.751 Y118.073 E7.07278
G1 X133.222 Y118.484 E7.09506
G1 X132.649 Y118.828 E7.11729
G1 X132.038 Y119.102 E7.13957
G1 X131.4 Y119.301 E7.16179
G1 X130.742 Y119.422 E7.18405
G1 X130.224 Y119.461 E7.20132
G1 X129.365 Y119.487 E7.22991
G1 X126.622 Y119.606 E7.32122
G1 X123.943 Y119.799 E7.41056
G1 X121.309 Y120.064 E7.49861
G1 X118.655 Y120.407 E7.58762
G1 X115.988 Y120.828 E7.67742
G1 X113.424 Y121.309 E7.76419
G1 X112.653 Y121.463 E7.79034
G1 X111.714 Y121.569 E7.82177
G1 X111.237 Y121.58 E7.83763
G1 X109.194 Y121.579 E7.90558
G1 X108.495 Y121.569 E7.92884
G1 X107.555 Y121.476 E7.96025
G1 X106.878 Y121.35 E7.98316
G1 X105.327 Y121.039 E8.03577
G1 X102.687 Y120.585 E8.12487
G1 X100.043 Y120.208 E8.2137
G1 X97.398 Y119.907 E8.30224
G1 X94.727 Y119.679 E8.3914
G1 X92.07 Y119.528 E8.47991
G1 X90.44 Y119.481 E8.53415
G1 X89.843 Y119.456 E8.55402
G1 X89.177 Y119.388 E8.57629
G1 X88.524 Y119.241 E8.59855
G1 X87.894 Y119.018 E8.62078
G1 X87.294 Y118.721 E8.64305
G1 X86.735 Y118.354 E8.66529
G1 X86.223 Y117.924 E8.68753
G1 X85.766 Y117.435 E8.70979
G1 X85.37 Y116.895 E8.73206
G1 X85.042 Y116.312 E8.75431
G1 X84.786 Y115.694 E8.77656
G1 X84.605 Y115.05 E8.79881
G1 X84.502 Y114.389 E8.82106
G1 X84.469 Y113.681 E8.84463
G1 X84.468 Y103.848 E9.17168
G0 F2400 X84.868 Y103.854
G1 F1200 X84.878 Y103.182 E9.19403
G1 X84.927 Y102.539 E9.21548
G1 X85.056 Y101.907 E9.23693
G1 X85.262 Y101.296 E9.25838
G1 X85.542 Y100.715 E9.27983
G1 X85.891 Y100.174 E9.30124
G1 X86.305 Y99.68 E9.32268
G1 X86.777 Y99.24 E9.34414
G1 X87.3 Y98.863 E9.36558
G1 X87.865 Y98.553 E9.38702
G1 X88.464 Y98.315 E9.40846
G1 X89.088 Y98.154 E9.42989
G1 X89.965 Y98.06 E9.45923
G1 X90.499 Y98.05 E9.47699
G1 X91.496 Y98.052 E9.51015
G1 X92.473 Y98.067 E9.54265
G1 X95.255 Y98.069 E9.63518
G1 X96.38 Y98.05 E9.6726
G1 X123.387 Y98.05 E10.57086
G1 X125.032 Y98.073 E10.62558
G1 X129.472 Y98.051 E10.77326
G1 X130.128 Y98.06 E10.79508
G1 X130.771 Y98.109 E10.81652
G1 X131.403 Y98.237 E10.83797
G1 X132.014 Y98.442 E10.85941
G1 X132.595 Y98.722 E10.88086
G1 X133.137 Y99.071 E10.9023
G1 X133.632 Y99.484 E10.92374
G1 X134.072 Y99.955 E10.94518
G1 X134.45 Y100.477 E10.96661
G1 X134.76 Y101.042 E10.98805
G1 X134.999 Y101.641 E11.0095
G1 X135.161 Y102.265 E11.03094
G1 X135.255 Y103.121 E11.05958
G1 X135.267 Y103.635 E11.07668
G1 X135.267 Y113.209 E11.39512
G1 X135.257 Y113.936 E11.4193
G1 X135.208 Y114.578 E11.44071
G1 X135.08 Y115.21 E11.46216
G1 X134.875 Y115.821 E11.4836
G1 X134.595 Y116.402 E11.50505
G1 X134.246 Y116.944 E11.52649
G1 X133.833 Y117.439 E11.54793
G1 X133.362 Y117.879 E11.56937
G1 X132.839 Y118.257 E11.59083
G1 X132.274 Y118.567 E11.61226
G1 X131.675 Y118.806 E11.63371
G1 X131.052 Y118.968 E11.65513
G1 X130.212 Y119.062 E11.68324
G1 X129.283 Y119.09 E11.71415
G1 X126.612 Y119.206 E11.80307
G1 X123.91 Y119.401 E11.89317
G1 X121.25 Y119.668 E11.98209
G1 X118.583 Y120.013 E12.07154
G1 X115.952 Y120.428 E12.16012
G1 X113.315 Y120.922 E12.24936
G1 X112.575 Y121.07 E12.27446
G1 X111.703 Y121.169 E12.30365
G1 X111.237 Y121.18 E12.31915
G1 X109.2 Y121.179 E12.3869
G1 X108.501 Y121.169 E12.41015
G1 X107.628 Y121.083 E12.43933
G1 X106.957 Y120.958 E12.46203
G1 X105.403 Y120.646 E12.51475
G1 X102.74 Y120.188 E12.60462
G1 X100.113 Y119.814 E12.69288
G1 X97.406 Y119.506 E12.78349
G1 X94.783 Y119.282 E12.87105
G1 X92.07 Y119.128 E12.96143
G1 X90.456 Y119.081 E13.01514
G1 X89.859 Y119.056 E13.03501
G1 X89.218 Y118.99 E13.05644
G1 X88.59 Y118.844 E13.07789
G1 X87.985 Y118.622 E13.09932
G1 X87.412 Y118.326 E13.12077
G1 X86.88 Y117.962 E13.14221
G1 X86.397 Y117.535 E13.16365
G1 X85.971 Y117.052 E13.18507
G1 X85.608 Y116.519 E13.20652
G1 X85.313 Y115.945 E13.22799
G1 X85.092 Y115.34 E13.24941
G1 X84.947 Y114.712 E13.27085
G1 X84.879 Y114.013 E13.2942
G1 X84.867 Y113.518 E13.31067
G1 X84.868 Y103.854 E13.6321
G0 F2400 X85.268 Y103.86
G1 F1200 X85.278 Y103.188 E13.65445
G1 X85.327 Y102.57 E13.67507
G1 X85.455 Y101.964 E13.69567
G1 X85.66 Y101.38 E13.71626
G1 X85.939 Y100.827 E13.73686
G1 X86.286 Y100.314 E13.75746
G1 X86.697 Y99.851 E13.77805
G1 X87.164 Y99.444 E13.79865
G1 X87.68 Y99.101 E13.81926
G1 X88.235 Y98.826 E13.83986
G1 X88.821 Y98.626 E13.86046
G1 X89.428 Y98.503 E13.88106
G1 X89.973 Y98.46 E13.89924
G1 X90.498 Y98.45 E13.9167
G1 X91.49 Y98.452 E13.9497
G1 X92.467 Y98.467 E13.9822
G1 X95.262 Y98.469 E14.07516
G1 X96.38 Y98.45 E14.11235
G1 X123.454 Y98.45 E15.01283
G1 X125.083 Y98.473 E15.06702
G1 X129.467 Y98.451 E15.21283
G1 X130.123 Y98.46 E15.23466
G1 X130.74 Y98.509 E15.25524
G1 X131.346 Y98.636 E15.27584
G1 X131.931 Y98.841 E15.29645
G1 X132.484 Y99.119 E15.31704
G1 X132.997 Y99.466 E15.33764
G1 X133.461 Y99.876 E15.35823
G1 X133.869 Y100.343 E15.37886
G1 X134.213 Y100.858 E15.39946
G1 X134.487 Y101.413 E15.42004
G1 X134.688 Y101.999 E15.44065
G1 X134.812 Y102.606 E15.46125
G1 X134.855 Y103.132 E15.47881
G1 X134.867 Y103.635 E15.49554
G1 X134.867 Y113.203 E15.81377
G1 X134.857 Y113.93 E15.83796
G1 X134.808 Y114.547 E15.85854
G1 X134.681 Y115.154 E15.87917
G1 X134.476 Y115.738 E15.89976
G1 X134.198 Y116.292 E15.92037
G1 X133.851 Y116.805 E15.94097
G1 X133.441 Y117.269 E15.96156
G1 X132.974 Y117.676 E15.98217
G1 X132.459 Y118.02 E16.00277
G1 X131.904 Y118.294 E16.02335
G1 X131.318 Y118.495 E16.04396
G1 X130.711 Y118.619 E16.06456
G1 X130.201 Y118.662 E16.08159
G1 X129.265 Y118.69 E16.11273
G1 X126.602 Y118.806 E16.20139
G1 X123.875 Y119.002 E16.29232
G1 X121.195 Y119.271 E16.38191
G1 X118.536 Y119.616 E16.47109
G1 X115.893 Y120.033 E16.56008
G1 X113.226 Y120.532 E16.65033
G1 X112.496 Y120.678 E16.67509
G1 X111.691 Y120.769 E16.70203
G1 X111.237 Y120.78 E16.71714
G1 X109.205 Y120.78 E16.78472
G1 X108.506 Y120.77 E16.80797
G1 X107.701 Y120.69 E16.83488
G1 X107.036 Y120.566 E16.85738
G1 X105.478 Y120.253 E16.91023
G1 X102.798 Y119.793 E17.00067
G1 X100.139 Y119.414 E17.09
G1 X97.487 Y119.112 E17.17878
G1 X94.768 Y118.88 E17.26954
G1 X92.104 Y118.728 E17.35829
G1 X90.473 Y118.682 E17.41256
G1 X89.876 Y118.657 E17.43244
G1 X89.26 Y118.591 E17.45304
G1 X88.658 Y118.446 E17.47364
G1 X88.079 Y118.226 E17.49424
G1 X87.534 Y117.932 E17.51483
G1 X87.031 Y117.571 E17.53543
G1 X86.579 Y117.148 E17.55602
G1 X86.185 Y116.67 E17.57662
G1 X85.855 Y116.145 E17.59724
G1 X85.596 Y115.583 E17.61783
G1 X85.412 Y114.991 E17.63844
G1 X85.305 Y114.381 E17.65904
G1 X85.269 Y113.658 E17.68312
G1 X85.268 Y103.86 E18.009
G0 F2400 X85.667 Y103.866
G1 F1200 X85.677 Y103.194 E18.03136
G1 X85.726 Y102.603 E18.05108
G1 X85.854 Y102.024 E18.0708
G1 X86.058 Y101.467 E18.09053
G1 X86.336 Y100.943 E18.11026
G1 X86.681 Y100.461 E18.12998
G1 X87.088 Y100.03 E18.14969
G1 X87.55 Y99.657 E18.16944
G1 X88.057 Y99.35 E18.18915
G1 X88.601 Y99.114 E18.20888
G1 X89.172 Y98.953 E18.22861
G1 X89.982 Y98.86 E18.25573
G1 X90.498 Y98.85 E18.27289
G1 X91.484 Y98.852 E18.30569
G1 X92.461 Y98.867 E18.33819
G1 X95.268 Y98.869 E18.43155
G1 X96.38 Y98.85 E18.46854
G1 X123.448 Y98.85 E19.36882
G1 X125.079 Y98.873 E19.42308
G1 X129.461 Y98.851 E19.56882
G1 X130.117 Y98.86 E19.59064
G1 X130.708 Y98.908 E19.61037
G1 X131.288 Y99.036 E19.63012
G1 X131.844 Y99.239 E19.64981
G1 X132.369 Y99.516 E19.66955
G1 X132.851 Y99.861 E19.68927
G1 X133.283 Y100.268 E19.70901
G1 X133.656 Y100.729 E19.72873
G1 X133.964 Y101.235 E19.74843
G1 X134.2 Y101.779 E19.76815
G1 X134.362 Y102.35 E19.7879
G1 X134.455 Y103.143 E19.81445
G1 X134.467 Y103.635 E19.83082
G1 X134.467 Y113.198 E20.14889
G1 X134.457 Y113.925 E20.17307
G1 X134.408 Y114.516 E20.19279
G1 X134.281 Y115.095 E20.21251
G1 X134.078 Y115.652 E20.23223
G1 X133.801 Y116.176 E20.25194
G1 X133.456 Y116.658 E20.27166
G1 X133.049 Y117.09 E20.2914
G1 X132.588 Y117.463 E20.31112
G1 X132.081 Y117.771 E20.33085
G1 X131.538 Y118.007 E20.35054
G1 X130.967 Y118.169 E20.37028
G1 X130.189 Y118.262 E20.39634
G1 X129.295 Y118.289 E20.42609
G1 X126.556 Y118.408 E20.51728
G1 X123.842 Y118.603 E20.60778
G1 X121.175 Y118.871 E20.69693
G1 X118.459 Y119.223 E20.78802
G1 X115.822 Y119.639 E20.87681
G1 X113.168 Y120.136 E20.96662
G1 X112.418 Y120.286 E20.99206
G1 X111.68 Y120.369 E21.01676
G1 X111.237 Y120.38 E21.0315
G1 X109.211 Y120.38 E21.09888
G1 X108.512 Y120.37 E21.12213
G1 X107.774 Y120.296 E21.1468
G1 X107.115 Y120.174 E21.16909
G1 X105.519 Y119.853 E21.22324
G1 X102.89 Y119.402 E21.31196
G1 X100.204 Y119.019 E21.4022
G1 X97.495 Y118.71 E21.49288
G1 X94.827 Y118.483 E21.58194
G1 X92.102 Y118.328 E21.67272
G1 X90.49 Y118.282 E21.72636
G1 X89.893 Y118.257 E21.74623
G1 X89.303 Y118.192 E21.76598
G1 X88.728 Y118.049 E21.78568
G1 X88.177 Y117.83 E21.8054
G1 X87.661 Y117.538 E21.82512
G1 X87.188 Y117.18 E21.84485
G1 X86.768 Y116.761 E21.86459
G1 X86.408 Y116.29 E21.8843
G1 X86.115 Y115.775 E21.90401
G1 X85.894 Y115.225 E21.92373
G1 X85.748 Y114.65 E21.94346
G1 X85.679 Y113.989 E21.96556
G1 X85.667 Y113.518 E21.98123
G1 X85.667 Y103.866 E22.30226
G0 F2400 X86.067 Y103.871
G1 F1200 X86.077 Y103.199 E22.32461
G1 X86.126 Y102.636 E22.34341
G1 X86.253 Y102.085 E22.36222
G1 X86.457 Y101.558 E22.38101
G1 X86.733 Y101.065 E22.3998
G1 X87.075 Y100.615 E22.4186
G1 X87.478 Y100.218 E22.43742
G1 X87.933 Y99.882 E22.45623
G1 X88.43 Y99.614 E22.47501
G1 X88.961 Y99.418 E22.49384
G1 X89.513 Y99.299 E22.51262
G1 X90.406 Y99.251 E22.54236
G1 X91.477 Y99.251 E22.57798
G1 X92.519 Y99.267 E22.61264
G1 X95.275 Y99.269 E22.70431
G1 X96.38 Y99.25 E22.74107
G1 X123.443 Y99.25 E23.64119
G1 X125.075 Y99.273 E23.69547
G1 X129.456 Y99.251 E23.84119
G1 X130.112 Y99.26 E23.86301
G1 X130.675 Y99.308 E23.8818
G1 X131.226 Y99.435 E23.90061
G1 X131.754 Y99.638 E23.91942
G1 X132.247 Y99.913 E23.9382
G1 X132.697 Y100.255 E23.957
G1 X133.095 Y100.658 E23.97584
G1 X133.431 Y101.112 E23.99462
G1 X133.7 Y101.609 E24.01342
G1 X133.897 Y102.139 E24.03222
G1 X134.016 Y102.692 E24.05104
G1 X134.066 Y103.528 E24.07889
G1 X134.067 Y113.192 E24.40032
G1 X134.057 Y113.919 E24.4245
G1 X134.009 Y114.482 E24.44329
G1 X133.882 Y115.033 E24.4621
G1 X133.679 Y115.561 E24.48092
G1 X133.404 Y116.055 E24.49972
G1 X133.062 Y116.505 E24.51852
G1 X132.659 Y116.902 E24.53733
G1 X132.205 Y117.238 E24.55612
G1 X131.708 Y117.507 E24.57492
G1 X131.178 Y117.704 E24.59372
G1 X130.625 Y117.823 E24.61254
G1 X129.267 Y117.889 E24.65776
G1 X126.544 Y118.008 E24.74841
G1 X123.81 Y118.205 E24.83958
G1 X121.116 Y118.475 E24.92963
G1 X118.421 Y118.824 E25.02002
G1 X115.752 Y119.245 E25.10989
G1 X113.094 Y119.743 E25.19983
G1 X112.339 Y119.894 E25.22544
G1 X111.669 Y119.969 E25.24786
G1 X111.237 Y119.98 E25.26223
G1 X109.217 Y119.98 E25.32942
G1 X108.518 Y119.97 E25.35267
G1 X107.847 Y119.903 E25.3751
G1 X107.193 Y119.782 E25.39722
G1 X105.593 Y119.461 E25.4515
G1 X102.938 Y119.004 E25.5411
G1 X100.238 Y118.62 E25.63181
G1 X97.573 Y118.316 E25.72102
G1 X94.847 Y118.084 E25.81202
G1 X92.102 Y117.927 E25.90346
G1 X90.507 Y117.882 E25.95653
G1 X89.91 Y117.857 E25.97641
G1 X89.348 Y117.794 E25.99522
G1 X88.801 Y117.652 E26.01401
G1 X88.279 Y117.434 E26.03283
G1 X87.793 Y117.145 E26.05164
G1 X87.353 Y116.79 E26.07044
G1 X86.967 Y116.377 E26.08924
G1 X86.644 Y115.913 E26.10804
G1 X86.389 Y115.409 E26.12683
G1 X86.207 Y114.873 E26.14566
G1 X86.103 Y114.318 E26.16444
G1 X86.069 Y113.635 E26.18718
G1 X86.067 Y103.871 E26.51194
G0 F2400 X86.467 Y103.877
G1 F1200 X86.477 Y103.205 E26.53429
G1 X86.525 Y102.671 E26.55212
G1 X86.652 Y102.15 E26.56996
G1 X86.855 Y101.654 E26.58778
G1 X87.129 Y101.193 E26.60562
G1 X87.469 Y100.778 E26.62346
G1 X87.866 Y100.418 E26.64129
G1 X88.313 Y100.121 E26.65914
G1 X88.798 Y99.894 E26.67695
G1 X89.313 Y99.741 E26.69482
G1 X89.999 Y99.66 E26.71779
